svg/fluentui-system-icons/ic_fluent_translate_auto_20_filled.svg

<svg width="20" height="20" viewBox="0 0 20 20" fill="none" xmlns="http://www.w3.org/2000/svg">
<path d="M10.8226 1.03699C10.41 0.999583 10.0453 1.30368 10.0079 1.7162C9.9705 2.12872 10.2746 2.49346 10.6871 2.53086C12.1103 2.6599 13.4189 3.18658 14.5013 3.99999H14.25C13.8358 3.99999 13.5 4.33577 13.5 4.74999C13.5 5.1642 13.8358 5.49999 14.25 5.49999H16.25C16.6642 5.49999 17 5.1642 17 4.74999V2.74999C17 2.33577 16.6642 1.99999 16.25 1.99999C15.8358 1.99999 15.5 2.33577 15.5 2.74999V2.87526C14.1833 1.8575 12.5756 1.19593 10.8226 1.03699ZM5.75 16H5.49962C6.58269 16.8139 7.89228 17.3406 9.31653 17.4692C9.72907 17.5064 10.0333 17.871 9.99608 18.2836C9.95884 18.6961 9.59423 19.0003 9.18169 18.9631C7.42699 18.8047 5.81775 18.1428 4.5 17.124V17.25C4.5 17.6642 4.16421 18 3.75 18C3.33579 18 3 17.6642 3 17.25V15.25C3 14.8358 3.33579 14.5 3.75 14.5H5.75C6.16421 14.5 6.5 14.8358 6.5 15.25C6.5 15.6642 6.16421 16 5.75 16ZM6.98384 3.20416C5.8591 2.87336 4.8763 2.99748 4.17824 3.20416C3.82993 3.30729 3.54983 3.43159 3.35304 3.53253C3.2544 3.58313 3.1759 3.62828 3.11937 3.66263C3.09108 3.67982 3.06821 3.69436 3.05099 3.70558L3.0294 3.71988L3.02181 3.72503L3.01883 3.72708L3.01754 3.72797L3.01639 3.72877C2.6762 3.96508 2.592 4.43243 2.82832 4.77262C3.06365 5.11139 3.5281 5.1963 3.86791 4.96363L3.8703 4.96206C3.87475 4.95916 3.88417 4.95311 3.89832 4.94451C3.92669 4.92728 3.97373 4.89998 4.03768 4.86717C4.1661 4.8013 4.35944 4.71488 4.60409 4.64245C5.09176 4.49806 5.77262 4.41166 6.55976 4.64296C7.13378 4.8134 7.36072 5.11018 7.47827 5.40226C7.55773 5.59971 7.59408 5.81245 7.61063 6.03129C7.17101 5.92587 6.66664 5.83546 6.13731 5.81331C5.1271 5.77103 3.97039 5.97449 2.96162 6.82264C2.03553 7.60128 1.83224 8.78516 2.12309 9.78117C2.41457 10.7793 3.22308 11.6801 4.42556 11.9326C5.3545 12.1278 6.3108 11.8568 7.05641 11.5256C7.25378 11.4379 7.44406 11.3431 7.62429 11.2445V11.25C7.62429 11.6642 7.96008 12 8.37429 12C8.78851 12 9.12429 11.6638 9.12429 11.2496L9.1243 6.49682C9.1245 6.13041 9.12485 5.47596 8.8698 4.84223C8.58688 4.13925 8.01294 3.50936 6.98547 3.20463L6.98384 3.20416ZM7.62429 7.58496V9.47388C7.32191 9.69242 6.90611 9.951 6.44742 10.1548C5.81424 10.4361 5.20849 10.5644 4.73392 10.4647C4.13568 10.339 3.71817 9.89223 3.56296 9.36071C3.40712 8.82704 3.53646 8.29906 3.92694 7.97075C4.56452 7.43468 5.31186 7.28007 6.07459 7.312C6.62773 7.33515 7.1592 7.45492 7.62429 7.58496ZM14.4167 7.01639C14.5638 6.6292 14.3692 6.19602 13.982 6.04887C13.5949 5.90172 13.1617 6.09631 13.0145 6.4835C12.8767 6.84612 12.7326 7.31364 12.6169 7.71764C12.0069 7.75701 11.399 7.76186 10.7963 7.7238C10.3829 7.6977 10.0266 8.01165 10.0005 8.42504C9.97443 8.83843 10.2884 9.19471 10.7018 9.22082C11.2133 9.25313 11.7249 9.25755 12.2344 9.23884C12.1117 9.80377 12.0201 10.3197 11.9556 10.7932C10.6463 11.4165 9.78275 12.3348 9.34141 13.3068C8.82936 14.4345 8.86046 15.7561 9.65934 16.5704C10.2019 17.1226 10.9848 17.1769 11.6518 17.0345C12.0942 16.94 12.5523 16.7494 12.997 16.4784C13.0067 16.5 13.0163 16.5221 13.0259 16.5446C13.1887 16.9255 13.6294 17.1024 14.0103 16.9396C14.3912 16.7769 14.568 16.3362 14.4053 15.9553C14.3439 15.8116 14.2702 15.6598 14.1944 15.5106C15.0193 14.6549 15.7123 13.4697 16.0098 12.0047C16.6689 12.292 17.1195 12.7593 17.3351 13.2478C17.5591 13.7554 17.5649 14.3349 17.2823 14.8995C16.9962 15.4709 16.3822 16.086 15.2657 16.5595C14.8844 16.7212 14.7063 17.1615 14.868 17.5428C15.0298 17.9241 15.47 18.1022 15.8513 17.9404C17.2107 17.3639 18.1408 16.5353 18.6236 15.571C19.1097 14.6 19.1089 13.5521 18.7074 12.6422C18.2587 11.6255 17.353 10.8406 16.1657 10.4641L16.1657 10.425C16.1657 10.0108 15.83 9.67497 15.4157 9.67497C15.0721 9.67497 14.7825 9.90605 14.6937 10.2213C14.3277 10.2108 13.9465 10.234 13.5534 10.294C13.6188 9.9309 13.7006 9.53806 13.8011 9.11232C14.5487 9.02101 15.2867 8.88933 16.0081 8.73285C16.4128 8.64504 16.6698 8.2457 16.582 7.8409C16.4942 7.4361 16.0948 7.17913 15.69 7.26695C15.2076 7.37161 14.7228 7.46336 14.2373 7.53797C14.297 7.35053 14.3582 7.17037 14.4167 7.01639ZM10.7072 13.927C10.9079 13.4849 11.2686 13.0119 11.8333 12.6003C11.8413 13.1463 11.8971 13.6181 11.9873 14.0377C12.0774 14.457 12.1993 14.8122 12.3313 15.1248C11.971 15.3616 11.6264 15.5061 11.3386 15.5675C10.9188 15.6572 10.7619 15.5523 10.7297 15.5195C10.5156 15.3013 10.3491 14.7157 10.7072 13.927ZM14.5377 11.7156C14.351 12.6269 13.9763 13.3904 13.5208 13.9937C13.4965 13.9071 13.4741 13.8169 13.4538 13.7225C13.3539 13.2578 13.3001 12.6638 13.353 11.8595C13.7776 11.7598 14.1731 11.7153 14.5377 11.7156Z" fill="#212121"/>
</svg>

<svg xmlns="http://www.w3.org/2000/svg" width="20" height="20"><path d="M10.823 1.037a.75.75 0 1 0-.136 1.494A7.458 7.458 0 0 1 14.501 4h-.251a.75.75 0 0 0 0 1.5h2a.75.75 0 0 0 .75-.75v-2a.75.75 0 0 0-1.5 0v.125a8.958 8.958 0 0 0-4.677-1.838ZM5.75 16H5.5a7.458 7.458 0 0 0 3.817 1.47.75.75 0 1 1-.135 1.493A8.958 8.958 0 0 1 4.5 17.124v.126a.75.75 0 0 1-1.5 0v-2a.75.75 0 0 1 .75-.75h2a.75.75 0 0 1 0 1.5ZM6.984 3.204a4.922 4.922 0 0 0-3.865.459 2.575 2.575 0 0 0-.068.043l-.022.014-.007.005-.003.002-.001.001h-.002a.75.75 0 0 0 .852 1.236l.002-.002a2.248 2.248 0 0 1 .167-.095 3.422 3.422 0 0 1 2.522-.224c.575.17.802.467.92.76.079.197.115.41.132.628a7.749 7.749 0 0 0-1.474-.218c-1.01-.042-2.167.161-3.175 1.01-.926.778-1.13 1.962-.839 2.958.292.998 1.1 1.9 2.303 2.152.928.195 1.885-.076 2.63-.407.198-.088.388-.183.568-.281v.005a.75.75 0 1 0 1.5 0V6.497c0-.367 0-1.021-.254-1.655-.283-.703-.857-1.333-1.885-1.637h-.001Zm.64 4.381v1.889a6.752 6.752 0 0 1-1.177.68c-.633.282-1.239.41-1.713.31a1.553 1.553 0 0 1-1.171-1.103c-.156-.534-.027-1.062.364-1.39.638-.536 1.385-.69 2.148-.659.553.023 1.084.143 1.55.273Zm6.793-.569a.75.75 0 0 0-1.402-.532c-.138.362-.282.83-.398 1.234-.61.039-1.218.044-1.82.006a.75.75 0 1 0-.095 1.497 15.36 15.36 0 0 0 1.532.018 20.19 20.19 0 0 0-.278 1.554c-1.31.623-2.173 1.542-2.615 2.514-.512 1.127-.48 2.45.318 3.263.543.553 1.326.607 1.993.465a4.4 4.4 0 0 0 1.345-.557l.029.067a.75.75 0 0 0 1.38-.59 7.579 7.579 0 0 0-.212-.444 7.06 7.06 0 0 0 1.816-3.506c.659.287 1.11.754 1.325 1.243.224.507.23 1.087-.053 1.652-.286.57-.9 1.186-2.016 1.66a.75.75 0 0 0 .585 1.38c1.36-.576 2.29-1.405 2.773-2.369a3.396 3.396 0 0 0 .083-2.929c-.448-1.016-1.354-1.801-2.541-2.178v-.039a.75.75 0 0 0-1.472-.204 6.351 6.351 0 0 0-1.14.073c.065-.363.147-.756.247-1.182a24.356 24.356 0 0 0 2.207-.38.75.75 0 0 0-.318-1.465c-.482.105-.967.196-1.453.271.06-.187.121-.368.18-.522Zm-3.71 6.911c.2-.442.562-.915 1.126-1.327.008.546.064 1.018.154 1.438a6 6 0 0 0 .344 1.087c-.36.237-.705.381-.992.443-.42.09-.577-.016-.61-.048-.213-.219-.38-.804-.022-1.593Zm3.83-2.211a5.647 5.647 0 0 1-1.016 2.278 4.52 4.52 0 0 1-.067-.271c-.1-.465-.154-1.06-.101-1.864.425-.1.82-.144 1.185-.143Z"/></svg>
